FINK
CUT[EIN BISSERLE LIEB UND E BISSERLE TREU]
REG[Europa, Mitteleuropa, Deutschland]
KEY[F0130  16  F 3/8]
MEL[-5_  123_4_  5_5_5_  6_6_6_  5__
    55  4_4_4_  3_3_3_  2_2_2_  1__
    5_  2_5_.4  3_+1_.5  5_3_2_  1__ //] >>
FCT[Liebes - Lied, Spott]
